X: 3439
T: JENNY LIND POLKA
%R: polka
B: James Kerr "Merry Melodies" v.3 p.50 #439
Z: 2016 John Chambers <jc:trillian.mit.edu>
M: 2/4
L: 1/8
K: D
|:\
FAGB | Af f/e/f | Ge e/d/e | Fd d/c/d |\
FAGB | Af f/e/f | Ge e/d/e |[1 dddz H:|[2 ddda |
|:\
d'b b/a/b | af f/e/f | ge e/d/e | fd d/c/d |\
d'b b/a/b | af f/e/f | ge e/d/e | dfdz :|

%%sep 1 1 500
%%sep 1 1 500

